X:19051
T:Xiraldilla (CT 307)
R:Xiraldilla
C:Tradicional
S:Música Tradicional Asturiana, (C) Tello & Tito. Asturies, 2001.
S:http://pagina.de/MusTradAst <telloytito@asturies.org>
N:Xiraldilla, transcrita en Muriellos, ayuntamiento de Riosa.
O:Muriellos (Riosa)
A:Asturies
Z:Cancioneru de Torner 307
M:2/4
L:1/8
Q:1/4=160
W:¡Ai! por entrar,
W:por entrar y por salir,
W:¡ai! por entrar
W:por entrar en tu jardín.
W:
W:Por entrar en tu jardín,
W:me mojé las zapatillas,
W:por no te pisar las flores
W:que tienes a las orillas.
W:
W:¡Ai! por entrar,
W:por entrar y por salir,
W:¡ai! por entrar
W:por entrar en tu jardín.
K:G
|c2 BA|B2 AG|AA GF|[1 G4 :|[2 G2 z2|
|: GA Bc|d3 e|(=f2 d2)|de dc|B3 c|A2 G2 :|
|c2 BA|B2 AG|AA GF|[1 G4 :|[2 G2 z2||


